src/assets/img/pour-operable.svg

<svg width="100%" height="100%" viewBox="0 0 40.1588 42.8809" xmlns="http://www.w3.org/2000/svg">
<path d="M23.3312 42.8809C20.5266 42.8809 17.893 42.2617 15.4304 41.0233C12.9678 39.7849 10.9498 38.0593 9.37653 35.8467L0.295751 22.9673C0.0563336 22.6371 -0.0377234 22.2821 0.0135804 21.9023C0.0648842 21.5225 0.227346 21.2005 0.500967 20.9363C1.18502 20.2428 2.03153 19.8465 3.04051 19.7475C4.04948 19.6484 4.9644 19.8796 5.78526 20.441L11.4287 24.2057V5.94435C11.4287 5.38294 11.6253 4.91234 12.0187 4.53256C12.412 4.15279 12.8994 3.9629 13.4808 3.9629C14.0623 3.9629 14.5497 4.15279 14.943 4.53256C15.3363 4.91234 15.533 5.38294 15.533 5.94435V28.02C15.533 28.8126 15.1653 29.3988 14.4299 29.7785C13.6946 30.1583 12.9849 30.117 12.3008 29.6547L7.94002 26.7321L12.8139 33.5681C14.011 35.2523 15.533 36.565 17.3799 37.5062C19.2269 38.4474 21.2106 38.918 23.3312 38.918C26.854 38.918 29.8553 37.7209 32.335 35.3266C34.8147 32.9323 36.0545 30.0345 36.0545 26.633V7.92579C36.0545 7.36438 36.2512 6.89379 36.6445 6.51401C37.0378 6.13423 37.5252 5.94435 38.1067 5.94435C38.6881 5.94435 39.1755 6.13423 39.5688 6.51401C39.9621 6.89379 40.1588 7.36438 40.1588 7.92579V26.633C40.1588 31.1573 38.5256 34.9964 35.2593 38.1502C31.993 41.304 28.0169 42.8809 23.3312 42.8809ZM21.6894 0C22.2709 0 22.7583 0.189889 23.1516 0.569666C23.5449 0.949444 23.7416 1.42004 23.7416 1.98145V19.1035C23.7416 19.6649 23.5449 20.1355 23.1516 20.5153C22.7583 20.895 22.2709 21.0849 21.6894 21.0849C21.108 21.0849 20.6206 20.895 20.2273 20.5153C19.834 20.1355 19.6373 19.6649 19.6373 19.1035V1.98145C19.6373 1.42004 19.834 0.949444 20.2273 0.569666C20.6206 0.189889 21.108 0 21.6894 0ZM29.898 1.98145C30.4795 1.98145 30.9669 2.17134 31.3602 2.55111C31.7535 2.93089 31.9502 3.40149 31.9502 3.9629V19.1035C31.9502 19.6649 31.7535 20.1355 31.3602 20.5153C30.9669 20.895 30.4795 21.0849 29.898 21.0849C29.3166 21.0849 28.8292 20.895 28.4359 20.5153C28.0426 20.1355 27.8459 19.6649 27.8459 19.1035V3.9629C27.8459 3.40149 28.0426 2.93089 28.4359 2.55111C28.8292 2.17134 29.3166 1.98145 29.898 1.98145Z" fill="var(--fill-0, #154973)"/>
</svg>

<svg xmlns="http://www.w3.org/2000/svg" viewBox="0 0 40.159 42.881"><path fill="var(--fill-0, #154973)" d="M23.331 42.88q-4.206 0-7.9-1.857-3.694-1.858-6.054-5.176L.296 22.967a1.43 1.43 0 0 1-.282-1.065q.075-.57.487-.966 1.025-1.04 2.54-1.189 1.512-.148 2.744.694l5.644 3.765V5.944q0-.842.59-1.411t1.462-.57 1.462.57.59 1.411V28.02q0 1.19-1.103 1.759-1.102.57-2.13-.124l-4.36-2.923 4.874 6.836a12.46 12.46 0 0 0 4.566 3.938q2.77 1.412 5.951 1.412 5.284 0 9.004-3.591t3.72-8.694V7.926q0-.843.59-1.412.59-.57 1.462-.57t1.462.57.59 1.412v18.707q0 6.786-4.9 11.517-4.899 4.73-11.928 4.73M21.69 0q.873 0 1.463.57t.59 1.411v17.123q0 .841-.59 1.411t-1.463.57q-.871 0-1.462-.57-.59-.57-.59-1.412V1.982q0-.842.59-1.411T21.69 0m8.209 1.981q.873 0 1.462.57.59.57.59 1.412v15.14q0 .843-.59 1.412-.59.57-1.462.57t-1.462-.57-.59-1.412V3.964q0-.843.59-1.412.59-.57 1.462-.57"/></svg>
